source/images/icons/icon-editorial/fax.svg

<?xml version="1.0" encoding="UTF-8"?>
<svg width="80px" height="80px" viewBox="0 0 80 80" version="1.1" xmlns="http://www.w3.org/2000/svg" xmlns:xlink="http://www.w3.org/1999/xlink">
    <!-- Generator: Sketch 55.2 (78181) - https://sketchapp.com -->
    <title>Illustrative Icons/Fax</title>
    <desc>Created with Sketch.</desc>
    <g id="Illustrative-Icons/Fax" stroke="none" stroke-width="1" fill="none" fill-rule="evenodd">
        <path d="M22,36.6666667 C22.9204746,36.6666667 23.6666667,35.9204746 23.6666667,35 C23.6666667,34.0795254 22.9204746,33.3333334 22,33.3333334 C21.0795254,33.3333334 20.3333333,34.0795254 20.3333333,35 C20.3333333,35.9204746 21.0795254,36.6666667 22,36.6666667 Z M52,63.3333334 L28.6666667,63.3333334 C27.7461922,63.3333334 27,64.0795256 27,65.0000001 C27,65.9204746 27.7461922,66.6666667 28.6666667,66.6666667 L52,66.6666667 C52.9204746,66.6666667 53.6666667,65.9204746 53.6666667,65.0000001 C53.6666667,64.0795256 52.9204746,63.3333334 52,63.3333334 Z M66,46.6666667 L60.3333334,46.6666667 L60.3333334,11.6666667 C60.3333334,10.7461921 59.5871412,10 58.6666667,10 L37,10 C36.5277025,10 36.0776337,10.2006256 35.7616667,10.5516667 L20.7616667,27.2183334 C20.3213845,27.707489 20.2101768,28.4099279 20.4778322,29.0111619 C20.7454876,29.6123959 21.3418802,29.9998274 22,30 L33.6666667,30 C36.4280904,30 38.6666667,27.7614237 38.6666667,25 L38.6666667,20 C38.6666667,19.0795254 37.9204745,18.3333333 37,18.3333333 C36.0795255,18.3333333 35.3333334,19.0795254 35.3333334,20 L35.3333334,25 C35.3333334,25.9204746 34.5871412,26.6666667 33.6666667,26.6666667 L25.7416667,26.6666667 L37.7416667,13.3333333 L57,13.3333333 L57,46.6666667 L23.6666667,46.6666667 L23.6666667,41.6666667 C23.6666667,40.7461922 22.9204746,40 22,40 C21.0795254,40 20.3333333,40.7461922 20.3333333,41.6666667 L20.3333333,46.6666667 L14.6666667,46.6666667 C10.4347676,46.6721759 7.0055091,50.1014344 7,54.3333334 L7,65 C7,65.9204746 7.74619208,66.6666667 8.66666667,66.6666667 L22,66.6666667 C22.9204746,66.6666667 23.6666667,65.9204746 23.6666667,65 L23.6666667,60 L57,60 L57,65 C57,65.9204746 57.7461922,66.6666667 58.6666667,66.6666667 L72,66.6666667 C72.9204746,66.6666667 73.6666667,65.9204746 73.6666667,65 L73.6666667,54.3333334 C73.6611576,50.1014344 70.2318991,46.6721759 66,46.6666667 Z M70.3333333,63.3333334 L60.3333333,63.3333334 L60.3333333,58.3333334 C60.3333333,57.4128589 59.5871412,56.6666667 58.6666667,56.6666667 L22,56.6666667 C21.0795254,56.6666667 20.3333333,57.4128589 20.3333333,58.3333334 L20.3333333,63.3333334 L10.3333333,63.3333334 L10.3333333,54.3333334 C10.3333333,51.9400996 12.2734328,50 14.6666667,50 L66.0000001,50 C68.3932339,50 70.3333333,51.9400996 70.3333333,54.3333334 L70.3333333,63.3333334 Z" id="Shape-color" fill="#ADB5BD"></path>
    </g>
</svg>

<svg width="80" height="80">
    <title>
        Illustrative Icons/Fax
    </title>
    <path d="M22 36.667a1.667 1.667 0 1 0 0-3.334 1.667 1.667 0 0 0 0 3.334zm30 26.666H28.667a1.667 1.667 0 0 0 0 3.334H52a1.667 1.667 0 1 0 0-3.334zm14-16.666h-5.667v-35c0-.92-.746-1.667-1.666-1.667H37c-.472 0-.922.2-1.238.552l-15 16.666A1.667 1.667 0 0 0 22 30h11.667a5 5 0 0 0 5-5v-5a1.667 1.667 0 0 0-3.334 0v5c0 .92-.746 1.667-1.666 1.667h-7.925l12-13.334H57v33.334H23.667v-5a1.667 1.667 0 0 0-3.334 0v5h-5.666A7.677 7.677 0 0 0 7 54.333V65c0 .92.746 1.667 1.667 1.667H22c.92 0 1.667-.747 1.667-1.667v-5H57v5c0 .92.746 1.667 1.667 1.667H72c.92 0 1.667-.747 1.667-1.667V54.333A7.677 7.677 0 0 0 66 46.667zm4.333 16.666h-10v-5c0-.92-.746-1.666-1.666-1.666H22c-.92 0-1.667.746-1.667 1.666v5h-10v-9A4.333 4.333 0 0 1 14.667 50H66a4.333 4.333 0 0 1 4.333 4.333v9z" fill="#ADB5BD" fill-rule="evenodd"/>
</svg>
